X:1
T:Killy Kranky
M:2/4
L:1/8
K:G
 D3/2 D/2 D3/2 E/2| G3/2 G/2 G2| A3/2 B/2 A3/2 G/2| E3/2 D/2 D2| D3/2 D/2 D3/2 E/2|\
 G3/2 G/2 G2| A3/2 A/2 A3/2 G/2| BA G2| Bd d2| BA G2| Bd de| d2 A2|\
 Bd d2| BA G2| AB AG| E2 D2|
